tools/download-figma-icons/icons/outlined-medium/cloud.svg

<svg width="24" height="24" viewBox="0 0 24 24" fill="none" xmlns="http://www.w3.org/2000/svg">
<path fill-rule="evenodd" clip-rule="evenodd" d="M4.5 12.75C2.8455 12.75 1.5 14.0955 1.5 15.75C1.5 17.4045 2.8455 18.75 4.5 18.75H18C20.4818 18.75 22.5 16.7318 22.5 14.25C22.5 11.7682 20.4818 9.75 18 9.75C17.6453 9.75 17.2762 9.79725 16.902 9.89025C16.704 9.9405 16.5 9.9075 16.3283 9.80175C16.1558 9.69675 16.0343 9.5265 15.9893 9.32925C15.4425 6.92775 13.3387 5.25 10.875 5.25C7.98075 5.25 5.625 7.60575 5.625 10.5C5.625 10.947 5.68725 11.406 5.811 11.8643C5.877 12.1095 5.814 12.372 5.64375 12.561C5.4735 12.7508 5.2125 12.8407 4.96875 12.7995C4.81425 12.7755 4.6605 12.75 4.5 12.75ZM18 20.25H4.5C2.01825 20.25 0 18.2318 0 15.75C0 13.38 1.842 11.4315 4.17075 11.262C4.14075 11.007 4.125 10.752 4.125 10.5C4.125 6.77775 7.15275 3.75 10.875 3.75C13.7992 3.75 16.3282 5.5875 17.2537 8.29875C20.907 7.8315 24 10.6965 24 14.25C24 17.5582 21.3083 20.25 18 20.25Z" fill="black"/>
</svg>

<svg xmlns="http://www.w3.org/2000/svg" width="24" height="24" fill="none" viewBox="0 0 24 24"><path fill="currentColor" fill-rule="evenodd" d="M4.5 12.75c-1.654 0-3 1.345-3 3 0 1.654 1.346 3 3 3H18c2.482 0 4.5-2.018 4.5-4.5s-2.018-4.5-4.5-4.5a4.6 4.6 0 0 0-1.098.14.74.74 0 0 1-.574-.088.75.75 0 0 1-.339-.473 5.22 5.22 0 0 0-5.114-4.079 5.257 5.257 0 0 0-5.25 5.25c0 .447.062.906.186 1.364a.75.75 0 0 1-.842.935c-.155-.024-.309-.049-.469-.049m13.5 7.5H4.5a4.504 4.504 0 0 1-4.5-4.5 4.506 4.506 0 0 1 4.17-4.488 7 7 0 0 1-.045-.762 6.757 6.757 0 0 1 6.75-6.75 6.71 6.71 0 0 1 6.379 4.549C20.907 7.832 24 10.697 24 14.25c0 3.308-2.692 6-6 6" clip-rule="evenodd"/></svg>
